X:1
T:Title
%%score { ( 1 3 ) | 2 }
L:1/8
Q:1/4=100
M:4/4
K:G
V:1 treble nm="Grand Piano"
V:3 treble 
V:2 treble 
V:1
 B>B B>A G>G G>[DF] | E>F G>E D2 G2 | A<A A>A G2 A2 | B4 d4 | B>B B>A G>G G>F | %5
w: Mrs.~C.~H.~Morris * * * * * * *|||||
 E>[DF] [EG]>[EA] [^DB]4 | [Ec]<[Ec] [EB]>[EA] [Gd]2 [DGB]2 | [CFA]4 [B,DG]4 | d>^c d>c d2 =c2 | %9
w: ||||
 B>_B =B>_B =B4 | [Ac]>[^GB] [Ac]>[GB] [Ac]2 [FA]2 | [GB]>[GB] [G^c]>[Gc] d2 =c2 | B>B B>c d2 B2 | %13
w: ||||
 [EA]>[EA] [EB]>[EB] [Ec]4 | [Gd]<[Gd] [Gd]>[Ge] [Gd]2 [DGB]2 | [CFA]4 [B,DG]4 |] %16
w: |||
V:2
 [G,DG]>[G,DG] [G,DG]>[G,CF] [G,B,D]>[K:bass][G,B,D] [G,B,D]>[B,,G,] | %1
 [C,G,C]>[D,G,C] [E,G,C]>[G,C] [G,B,]4 | [D,F,C]<[D,F,C] [D,F,C]>[D,F,C] [D,G,B,]2 [D,F,C]2 | %3
 [G,D]4 [G,B,D]4 | [G,D]>[G,D] [G,D]>[G,C] [G,B,]>[G,B,] [G,B,]>[G,D] | %5
 [C,G,C]>[C,G,] [C,C]>[C,E,] [B,,F,]4 | [A,,A,]<[A,,A,] [B,,^G,]>[C,A,] [D,B,]2 D,2 | D,4 G,,4 | %8
 [G,B,G]>[G,_B,G] [G,=B,G]>[G,_B,G] [G,=B,G]2 [G,EG]2 | [G,DG]>[G,^CG] [G,DG]>[G,CG] [G,DG]4 | %10
 [D,D]>[D,D] [D,D]>[D,D] [D,D]2 [D,D]2 | [G,D]>[G,D] [E,A,]>[E,A,] [D,A,]4 | %12
 [G,G]>[G,G] [G,G]>[G,G] [G,B,G]2 [G,DG]2 | [C,C]>[C,C] [B,,^G,]>[B,,G,] [A,,A,]4 | %14
 [B,,G,]<[B,,G,] [B,,G,]>[C,C] [D,B,]2 D,2 | D,4 G,,4 |] %16
V:3
 x8 | x8 | x8 | x8 | x8 | x8 | x8 | x8 | x8 | x8 | x8 | z4 F4 | x8 | x8 | x8 | x8 |] %16

